assets/1. F-P/Japanese secret button/Color/Japanese.Secret.Button-color.svg

<svg width="100%" height="100%" viewBox="0 0 32 32" fill="none" xmlns="http://www.w3.org/2000/svg">
<g filter="url(#filter0_iii_18590_2709)">
<path d="M15.6023 29.8188C23.3343 29.8188 29.6023 23.5508 29.6023 15.8188C29.6023 8.08686 23.3343 1.81885 15.6023 1.81885C7.87031 1.81885 1.60229 8.08686 1.60229 15.8188C1.60229 23.5508 7.87031 29.8188 15.6023 29.8188Z" fill="url(#paint0_linear_18590_2709)"/>
</g>
<g filter="url(#filter1_f_18590_2709)">
<path d="M17.2312 5.05455C16.7449 4.79282 16.1384 4.97491 15.8767 5.46124C15.615 5.94758 15.7971 6.55399 16.2834 6.81572L18.7734 8.15572C19.2598 8.41744 19.8662 8.23535 20.1279 7.74902C20.3896 7.26269 20.2075 6.65627 19.7212 6.39455L17.2312 5.05455Z" fill="#E31F4E"/>
<path d="M22.2872 5.9051C22.8395 5.9051 23.2872 6.35282 23.2872 6.9051C23.2872 11.5541 21.9364 16.0721 19.4374 19.9286C19.4243 19.9489 19.4172 19.9726 19.4172 19.9968V24.1152C19.4172 24.2229 19.4995 24.3052 19.6072 24.3052H20.3572C21.4149 24.3052 22.2672 23.4529 22.2672 22.3952C22.2672 21.8429 22.7149 21.3952 23.2672 21.3952C23.8195 21.3952 24.2672 21.8429 24.2672 22.3952C24.2672 24.5575 22.5195 26.3052 20.3572 26.3052H19.6072C18.3949 26.3052 17.4172 25.3275 17.4172 24.1152V22.8741C17.4172 22.7838 17.3049 22.7416 17.2449 22.8091L15.2839 25.0103C14.9165 25.4227 14.2844 25.4591 13.872 25.0918C13.4596 24.7244 13.4232 24.0923 13.7906 23.6799L15.7495 21.4811C16.3426 20.8132 16.8921 20.1125 17.3951 19.3846C17.4095 19.3638 17.4172 19.339 17.4172 19.3137V10.1152C17.4172 9.5629 17.8649 9.11518 18.4172 9.11518C18.9695 9.11518 19.4172 9.5629 19.4172 10.1152V15.1794C19.4172 15.3145 19.598 15.3518 19.6492 15.2267C20.7221 12.6076 21.2872 9.78382 21.2872 6.9051C21.2872 6.35282 21.7349 5.9051 22.2872 5.9051Z" fill="#E31F4E"/>
<path d="M16.5072 13.6851C16.5072 13.1328 16.0595 12.6851 15.5072 12.6851C14.955 12.6851 14.5072 13.1328 14.5072 13.6851V13.8951C14.5072 15.9781 13.8955 18.0046 12.7359 19.7394C12.429 20.1986 12.5524 20.8196 13.0115 21.1265C13.4707 21.4334 14.0917 21.31 14.3986 20.8508C15.779 18.7857 16.5072 16.3721 16.5072 13.8951V13.6851Z" fill="#E31F4E"/>
<path d="M22.858 14.41C23.3082 14.0901 23.9325 14.1957 24.2524 14.6459L26.1924 17.3759C26.5123 17.8261 26.4067 18.4504 25.9565 18.7703C25.5063 19.0902 24.882 18.9846 24.5621 18.5344L22.6221 15.8044C22.3022 15.3542 22.4078 14.7299 22.858 14.41Z" fill="#E31F4E"/>
<path d="M12.9584 7.33911C13.1109 7.86994 12.8041 8.42384 12.2733 8.57628L10.7878 9.00288C10.7342 9.01827 10.6973 9.06728 10.6973 9.12302V12.5602C10.6973 12.6292 10.7532 12.6852 10.8223 12.6852H12.6072C13.1595 12.6852 13.6072 13.1329 13.6072 13.6852C13.6072 14.2375 13.1595 14.6852 12.6072 14.6852H11.8791C11.7748 14.6852 11.7164 14.8053 11.7808 14.8874L13.0839 16.5477C13.4249 16.9822 13.3491 17.6108 12.9147 17.9518C12.4802 18.2928 11.8516 18.217 11.5106 17.7825L10.9206 17.0308C10.8473 16.9373 10.6973 16.9892 10.6973 17.1079V25.3151C10.6973 25.8674 10.2496 26.3151 9.69727 26.3151C9.14498 26.3151 8.69727 25.8674 8.69727 25.3151V19.5778C8.69727 19.4478 8.52084 19.4027 8.4564 19.5156C7.92404 20.4481 7.2879 21.3684 6.54378 22.1327C6.15851 22.5284 5.52541 22.5369 5.12969 22.1516C4.73398 21.7664 4.7255 21.1333 5.11076 20.7375C6.26709 19.5499 7.17867 17.7981 7.81106 16.2733C8.02908 15.7476 8.20921 15.2606 8.35112 14.85C8.37906 14.7691 8.31879 14.6852 8.23325 14.6852H6.78723C6.23495 14.6852 5.78723 14.2375 5.78723 13.6852C5.78723 13.1329 6.23495 12.6852 6.78723 12.6852H8.57227C8.6413 12.6852 8.69727 12.6292 8.69727 12.5602V9.76915C8.69727 9.68604 8.61765 9.62607 8.53776 9.64901L7.36329 9.98628C6.83246 10.1387 6.27857 9.83197 6.12613 9.30114C5.97369 8.77031 6.28044 8.21641 6.81127 8.06397L11.7213 6.65397C12.2521 6.50153 12.806 6.80828 12.9584 7.33911Z" fill="#E31F4E"/>
</g>
<g filter="url(#filter2_ii_18590_2709)">
<path d="M17.2312 5.05455C16.7449 4.79282 16.1384 4.97491 15.8767 5.46124C15.615 5.94758 15.7971 6.55399 16.2834 6.81572L18.7734 8.15572C19.2598 8.41744 19.8662 8.23535 20.1279 7.74902C20.3896 7.26269 20.2075 6.65627 19.7212 6.39455L17.2312 5.05455Z" fill="#FCF2FF"/>
<path d="M22.2872 5.9051C22.8395 5.9051 23.2872 6.35282 23.2872 6.9051C23.2872 11.5541 21.9364 16.0721 19.4374 19.9286C19.4243 19.9489 19.4172 19.9726 19.4172 19.9968V24.1152C19.4172 24.2229 19.4995 24.3052 19.6072 24.3052H20.3572C21.4149 24.3052 22.2672 23.4529 22.2672 22.3952C22.2672 21.8429 22.7149 21.3952 23.2672 21.3952C23.8195 21.3952 24.2672 21.8429 24.2672 22.3952C24.2672 24.5575 22.5195 26.3052 20.3572 26.3052H19.6072C18.3949 26.3052 17.4172 25.3275 17.4172 24.1152V22.8741C17.4172 22.7838 17.3049 22.7416 17.2449 22.8091L15.2839 25.0103C14.9165 25.4227 14.2844 25.4591 13.872 25.0918C13.4596 24.7244 13.4232 24.0923 13.7906 23.6799L15.7495 21.4811C16.3426 20.8132 16.8921 20.1125 17.3951 19.3846C17.4095 19.3638 17.4172 19.339 17.4172 19.3137V10.1152C17.4172 9.5629 17.8649 9.11518 18.4172 9.11518C18.9695 9.11518 19.4172 9.5629 19.4172 10.1152V15.1794C19.4172 15.3145 19.598 15.3518 19.6492 15.2267C20.7221 12.6076 21.2872 9.78382 21.2872 6.9051C21.2872 6.35282 21.7349 5.9051 22.2872 5.9051Z" fill="#FCF2FF"/>
<path d="M16.5072 13.6851C16.5072 13.1328 16.0595 12.6851 15.5072 12.6851C14.955 12.6851 14.5072 13.1328 14.5072 13.6851V13.8951C14.5072 15.9781 13.8955 18.0046 12.7359 19.7394C12.429 20.1986 12.5524 20.8196 13.0115 21.1265C13.4707 21.4334 14.0917 21.31 14.3986 20.8508C15.779 18.7857 16.5072 16.3721 16.5072 13.8951V13.6851Z" fill="#FCF2FF"/>
<path d="M22.858 14.41C23.3082 14.0901 23.9325 14.1957 24.2524 14.6459L26.1924 17.3759C26.5123 17.8261 26.4067 18.4504 25.9565 18.7703C25.5063 19.0902 24.882 18.9846 24.5621 18.5344L22.6221 15.8044C22.3022 15.3542 22.4078 14.7299 22.858 14.41Z" fill="#FCF2FF"/>
<path d="M12.9584 7.33911C13.1109 7.86994 12.8041 8.42384 12.2733 8.57628L10.7878 9.00288C10.7342 9.01827 10.6973 9.06728 10.6973 9.12302V12.5602C10.6973 12.6292 10.7532 12.6852 10.8223 12.6852H12.6072C13.1595 12.6852 13.6072 13.1329 13.6072 13.6852C13.6072 14.2375 13.1595 14.6852 12.6072 14.6852H11.8791C11.7748 14.6852 11.7164 14.8053 11.7808 14.8874L13.0839 16.5477C13.4249 16.9822 13.3491 17.6108 12.9147 17.9518C12.4802 18.2928 11.8516 18.217 11.5106 17.7825L10.9206 17.0308C10.8473 16.9373 10.6973 16.9892 10.6973 17.1079V25.3151C10.6973 25.8674 10.2496 26.3151 9.69727 26.3151C9.14498 26.3151 8.69727 25.8674 8.69727 25.3151V19.5778C8.69727 19.4478 8.52084 19.4027 8.4564 19.5156C7.92404 20.4481 7.2879 21.3684 6.54378 22.1327C6.15851 22.5284 5.52541 22.5369 5.12969 22.1516C4.73398 21.7664 4.7255 21.1333 5.11076 20.7375C6.26709 19.5499 7.17867 17.7981 7.81106 16.2733C8.02908 15.7476 8.20921 15.2606 8.35112 14.85C8.37906 14.7691 8.31879 14.6852 8.23325 14.6852H6.78723C6.23495 14.6852 5.78723 14.2375 5.78723 13.6852C5.78723 13.1329 6.23495 12.6852 6.78723 12.6852H8.57227C8.6413 12.6852 8.69727 12.6292 8.69727 12.5602V9.76915C8.69727 9.68604 8.61765 9.62607 8.53776 9.64901L7.36329 9.98628C6.83246 10.1387 6.27857 9.83197 6.12613 9.30114C5.97369 8.77031 6.28044 8.21641 6.81127 8.06397L11.7213 6.65397C12.2521 6.50153 12.806 6.80828 12.9584 7.33911Z" fill="#FCF2FF"/>
</g>
<defs>
<filter id="filter0_iii_18590_2709" x="-0.147705" y="0.318848" width="31.25" height="31.25" filterUnits="userSpaceOnUse" color-interpolation-filters="sRGB">
<feFlood flood-opacity="0" result="BackgroundImageFix"/>
<feBlend mode="normal" in="SourceGraphic" in2="BackgroundImageFix" result="shape"/>
<feColorMatrix in="SourceAlpha" type="matrix" values="0 0 0 0 0 0 0 0 0 0 0 0 0 0 0 0 0 0 127 0" result="hardAlpha"/>
<feOffset dx="-1.75" dy="1.75"/>
<feGaussianBlur stdDeviation="1"/>
<feComposite in2="hardAlpha" operator="arithmetic" k2="-1" k3="1"/>
<feColorMatrix type="matrix" values="0 0 0 0 1 0 0 0 0 0.466667 0 0 0 0 0.670588 0 0 0 1 0"/>
<feBlend mode="normal" in2="shape" result="effect1_innerShadow_18590_2709"/>
<feColorMatrix in="SourceAlpha" type="matrix" values="0 0 0 0 0 0 0 0 0 0 0 0 0 0 0 0 0 0 127 0" result="hardAlpha"/>
<feOffset dx="1.5"/>
<feGaussianBlur stdDeviation="1.5"/>
<feComposite in2="hardAlpha" operator="arithmetic" k2="-1" k3="1"/>
<feColorMatrix type="matrix" values="0 0 0 0 0.878431 0 0 0 0 0.156863 0 0 0 0 0.282353 0 0 0 1 0"/>
<feBlend mode="normal" in2="effect1_innerShadow_18590_2709" result="effect2_innerShadow_18590_2709"/>
<feColorMatrix in="SourceAlpha" type="matrix" values="0 0 0 0 0 0 0 0 0 0 0 0 0 0 0 0 0 0 127 0" result="hardAlpha"/>
<feOffset dy="-1.5"/>
<feGaussianBlur stdDeviation="1.5"/>
<feComposite in2="hardAlpha" operator="arithmetic" k2="-1" k3="1"/>
<feColorMatrix type="matrix" values="0 0 0 0 0.882353 0 0 0 0 0.117647 0 0 0 0 0.321569 0 0 0 1 0"/>
<feBlend mode="normal" in2="effect2_innerShadow_18590_2709" result="effect3_innerShadow_18590_2709"/>
</filter>
<filter id="filter1_f_18590_2709" x="3.82727" y="3.93494" width="23.55" height="23.3801" filterUnits="userSpaceOnUse" color-interpolation-filters="sRGB">
<feFlood flood-opacity="0" result="BackgroundImageFix"/>
<feBlend mode="normal" in="SourceGraphic" in2="BackgroundImageFix" result="shape"/>
<feGaussianBlur stdDeviation="0.5" result="effect1_foregroundBlur_18590_2709"/>
</filter>
<filter id="filter2_ii_18590_2709" x="4.42727" y="4.53494" width="22.35" height="22.1801" filterUnits="userSpaceOnUse" color-interpolation-filters="sRGB">
<feFlood flood-opacity="0" result="BackgroundImageFix"/>
<feBlend mode="normal" in="SourceGraphic" in2="BackgroundImageFix" result="shape"/>
<feColorMatrix in="SourceAlpha" type="matrix" values="0 0 0 0 0 0 0 0 0 0 0 0 0 0 0 0 0 0 127 0" result="hardAlpha"/>
<feOffset dx="-0.4" dy="0.4"/>
<feGaussianBlur stdDeviation="0.375"/>
<feComposite in2="hardAlpha" operator="arithmetic" k2="-1" k3="1"/>
<feColorMatrix type="matrix" values="0 0 0 0 0.913725 0 0 0 0 0.886275 0 0 0 0 0.968627 0 0 0 1 0"/>
<feBlend mode="normal" in2="shape" result="effect1_innerShadow_18590_2709"/>
<feColorMatrix in="SourceAlpha" type="matrix" values="0 0 0 0 0 0 0 0 0 0 0 0 0 0 0 0 0 0 127 0" result="hardAlpha"/>
<feOffset dx="0.4" dy="-0.4"/>
<feGaussianBlur stdDeviation="0.2"/>
<feComposite in2="hardAlpha" operator="arithmetic" k2="-1" k3="1"/>
<feColorMatrix type="matrix" values="0 0 0 0 1 0 0 0 0 0.988235 0 0 0 0 1 0 0 0 1 0"/>
<feBlend mode="normal" in2="effect1_innerShadow_18590_2709" result="effect2_innerShadow_18590_2709"/>
</filter>
<linearGradient id="paint0_linear_18590_2709" x1="15.6023" y1="1.81885" x2="15.6023" y2="29.8188" gradientUnits="userSpaceOnUse">
<stop stop-color="#FF5697"/>
<stop offset="1" stop-color="#FA4C62"/>
</linearGradient>
</defs>
</svg>

<svg width="100%" height="100%" viewBox="0 0 32 32" xmlns="http://www.w3.org/2000/svg"><g filter="url(#a)"><path fill="url(#b)" d="M15.602 29.819c7.732 0 14-6.268 14-14s-6.268-14-14-14-14 6.268-14 14 6.268 14 14 14"/></g><g fill="#E31F4E" filter="url(#c)"><path d="M17.231 5.055a1 1 0 0 0-.948 1.76l2.49 1.34a1 1 0 0 0 .948-1.76z"/><path d="M22.287 5.905a1 1 0 0 1 1 1c0 4.65-1.35 9.167-3.85 13.024a.13.13 0 0 0-.02.068v4.118c0 .108.082.19.19.19h.75c1.058 0 1.91-.852 1.91-1.91a1 1 0 1 1 2 0 3.906 3.906 0 0 1-3.91 3.91h-.75a2.186 2.186 0 0 1-2.19-2.19v-1.24a.099.099 0 0 0-.172-.066l-1.961 2.201a1 1 0 0 1-1.493-1.33l1.958-2.199a22 22 0 0 0 1.646-2.096.13.13 0 0 0 .022-.071v-9.199a1 1 0 1 1 2 0v5.064c0 .136.181.173.232.048a22 22 0 0 0 1.638-8.322 1 1 0 0 1 1-1"/><path d="M16.507 13.685a1 1 0 1 0-2 0v.21c0 2.083-.611 4.11-1.771 5.844a1 1 0 0 0 1.663 1.112 12.5 12.5 0 0 0 2.108-6.956zM22.858 14.41a1 1 0 0 1 1.394.236l1.94 2.73a1 1 0 0 1-1.63 1.158l-1.94-2.73a1 1 0 0 1 .236-1.394"/><path d="M12.958 7.34a1 1 0 0 1-.685 1.236l-1.485.427a.125.125 0 0 0-.09.12v3.437c0 .07.055.125.124.125h1.785a1 1 0 1 1 0 2h-.728a.125.125 0 0 0-.098.202l1.303 1.66a1 1 0 0 1-1.573 1.235l-.59-.751a.125.125 0 0 0-.224.077v8.207a1 1 0 1 1-2 0v-5.737c0-.13-.176-.175-.24-.062-.533.932-1.17 1.852-1.913 2.617a1 1 0 1 1-1.433-1.395c1.156-1.188 2.068-2.94 2.7-4.465.218-.525.398-1.012.54-1.423a.124.124 0 0 0-.118-.165H6.787a1 1 0 1 1 0-2h1.785a.125.125 0 0 0 .125-.125V9.77a.125.125 0 0 0-.16-.121l-1.174.337a1 1 0 0 1-.552-1.922l4.91-1.41a1 1 0 0 1 1.237.685"/></g><g fill="#FCF2FF" filter="url(#d)"><path d="M17.231 5.055a1 1 0 0 0-.948 1.76l2.49 1.34a1 1 0 0 0 .948-1.76z"/><path d="M22.287 5.905a1 1 0 0 1 1 1c0 4.65-1.35 9.167-3.85 13.024a.13.13 0 0 0-.02.068v4.118c0 .108.082.19.19.19h.75c1.058 0 1.91-.852 1.91-1.91a1 1 0 1 1 2 0 3.906 3.906 0 0 1-3.91 3.91h-.75a2.186 2.186 0 0 1-2.19-2.19v-1.24a.099.099 0 0 0-.172-.066l-1.961 2.201a1 1 0 0 1-1.493-1.33l1.958-2.199a22 22 0 0 0 1.646-2.096.13.13 0 0 0 .022-.071v-9.199a1 1 0 1 1 2 0v5.064c0 .136.181.173.232.048a22 22 0 0 0 1.638-8.322 1 1 0 0 1 1-1"/><path d="M16.507 13.685a1 1 0 1 0-2 0v.21c0 2.083-.611 4.11-1.771 5.844a1 1 0 0 0 1.663 1.112 12.5 12.5 0 0 0 2.108-6.956zM22.858 14.41a1 1 0 0 1 1.394.236l1.94 2.73a1 1 0 0 1-1.63 1.158l-1.94-2.73a1 1 0 0 1 .236-1.394"/><path d="M12.958 7.34a1 1 0 0 1-.685 1.236l-1.485.427a.125.125 0 0 0-.09.12v3.437c0 .07.055.125.124.125h1.785a1 1 0 1 1 0 2h-.728a.125.125 0 0 0-.098.202l1.303 1.66a1 1 0 0 1-1.573 1.235l-.59-.751a.125.125 0 0 0-.224.077v8.207a1 1 0 1 1-2 0v-5.737c0-.13-.176-.175-.24-.062-.533.932-1.17 1.852-1.913 2.617a1 1 0 1 1-1.433-1.395c1.156-1.188 2.068-2.94 2.7-4.465.218-.525.398-1.012.54-1.423a.124.124 0 0 0-.118-.165H6.787a1 1 0 1 1 0-2h1.785a.125.125 0 0 0 .125-.125V9.77a.125.125 0 0 0-.16-.121l-1.174.337a1 1 0 0 1-.552-1.922l4.91-1.41a1 1 0 0 1 1.237.685"/></g><defs><filter id="a" width="31.25" height="31.25" x="-.148" y=".319" color-interpolation-filters="sRGB" filterUnits="userSpaceOnUse"><feFlood flood-opacity="0" result="BackgroundImageFix"/><feBlend in="SourceGraphic" in2="BackgroundImageFix" result="shape"/><feColorMatrix in="SourceAlpha" result="hardAlpha" values="0 0 0 0 0 0 0 0 0 0 0 0 0 0 0 0 0 0 127 0"/><feOffset dx="-1.75" dy="1.75"/><feGaussianBlur stdDeviation="1"/><feComposite in2="hardAlpha" k2="-1" k3="1" operator="arithmetic"/><feColorMatrix values="0 0 0 0 1 0 0 0 0 0.466667 0 0 0 0 0.670588 0 0 0 1 0"/><feBlend in2="shape" result="effect1_innerShadow_18590_2709"/><feColorMatrix in="SourceAlpha" result="hardAlpha" values="0 0 0 0 0 0 0 0 0 0 0 0 0 0 0 0 0 0 127 0"/><feOffset dx="1.5"/><feGaussianBlur stdDeviation="1.5"/><feComposite in2="hardAlpha" k2="-1" k3="1" operator="arithmetic"/><feColorMatrix values="0 0 0 0 0.878431 0 0 0 0 0.156863 0 0 0 0 0.282353 0 0 0 1 0"/><feBlend in2="effect1_innerShadow_18590_2709" result="effect2_innerShadow_18590_2709"/><feColorMatrix in="SourceAlpha" result="hardAlpha" values="0 0 0 0 0 0 0 0 0 0 0 0 0 0 0 0 0 0 127 0"/><feOffset dy="-1.5"/><feGaussianBlur stdDeviation="1.5"/><feComposite in2="hardAlpha" k2="-1" k3="1" operator="arithmetic"/><feColorMatrix values="0 0 0 0 0.882353 0 0 0 0 0.117647 0 0 0 0 0.321569 0 0 0 1 0"/><feBlend in2="effect2_innerShadow_18590_2709" result="effect3_innerShadow_18590_2709"/></filter><filter id="c" width="23.55" height="23.38" x="3.827" y="3.935" color-interpolation-filters="sRGB" filterUnits="userSpaceOnUse"><feFlood flood-opacity="0" result="BackgroundImageFix"/><feBlend in="SourceGraphic" in2="BackgroundImageFix" result="shape"/><feGaussianBlur result="effect1_foregroundBlur_18590_2709" stdDeviation=".5"/></filter><filter id="d" width="22.35" height="22.18" x="4.427" y="4.535" color-interpolation-filters="sRGB" filterUnits="userSpaceOnUse"><feFlood flood-opacity="0" result="BackgroundImageFix"/><feBlend in="SourceGraphic" in2="BackgroundImageFix" result="shape"/><feColorMatrix in="SourceAlpha" result="hardAlpha" values="0 0 0 0 0 0 0 0 0 0 0 0 0 0 0 0 0 0 127 0"/><feOffset dx="-.4" dy=".4"/><feGaussianBlur stdDeviation=".375"/><feComposite in2="hardAlpha" k2="-1" k3="1" operator="arithmetic"/><feColorMatrix values="0 0 0 0 0.913725 0 0 0 0 0.886275 0 0 0 0 0.968627 0 0 0 1 0"/><feBlend in2="shape" result="effect1_innerShadow_18590_2709"/><feColorMatrix in="SourceAlpha" result="hardAlpha" values="0 0 0 0 0 0 0 0 0 0 0 0 0 0 0 0 0 0 127 0"/><feOffset dx=".4" dy="-.4"/><feGaussianBlur stdDeviation=".2"/><feComposite in2="hardAlpha" k2="-1" k3="1" operator="arithmetic"/><feColorMatrix values="0 0 0 0 1 0 0 0 0 0.988235 0 0 0 0 1 0 0 0 1 0"/><feBlend in2="effect1_innerShadow_18590_2709" result="effect2_innerShadow_18590_2709"/></filter><linearGradient id="b" x1="15.602" x2="15.602" y1="1.819" y2="29.819" gradientUnits="userSpaceOnUse"><stop stop-color="#FF5697"/><stop offset="1" stop-color="#FA4C62"/></linearGradient></defs></svg>
